optimized/20/solid/lock-closed.svg

<svg xmlns="http://www.w3.org/2000/svg" viewBox="0 0 20 20">
  <path fill-rule="evenodd" d="M10 1C7.51472 1 5.5 3.01472 5.5 5.5V9H5C3.89543 9 3 9.89543 3 11V17C3 18.1046 3.89543 19 5 19H15C16.1046 19 17 18.1046 17 17V11C17 9.89543 16.1046 9 15 9H14.5V5.5C14.5 3.01472 12.4853 1 10 1ZM13 9V5.5C13 3.84315 11.6569 2.5 10 2.5C8.34315 2.5 7 3.84315 7 5.5V9H13Z" clip-rule="evenodd"/>
</svg>

<svg xmlns="http://www.w3.org/2000/svg" viewBox="0 0 20 20" fill="currentColor" aria-hidden="true">
  <path fill-rule="evenodd" d="M10 1a4.5 4.5 0 00-4.5 4.5V9H5a2 2 0 00-2 2v6a2 2 0 002 2h10a2 2 0 002-2v-6a2 2 0 00-2-2h-.5V5.5A4.5 4.5 0 0010 1zm3 8V5.5a3 3 0 10-6 0V9h6z" clip-rule="evenodd"/>
</svg>
